storage/app/icons/phosphoricons/thin/dresser-thin.svg

<svg xmlns="http://www.w3.org/2000/svg" fill="currentColor" viewBox="0 0 256 256"><path d="M140 192a4 4 0 0 1-4 4h-16a4 4 0 0 1 0-8h16a4 4 0 0 1 4 4M120 68h16a4 4 0 0 0 0-8h-16a4 4 0 0 0 0 8m16 56h-16a4 4 0 0 0 0 8h16a4 4 0 0 0 0-8m76-84v176a12 12 0 0 1-12 12H56a12 12 0 0 1-12-12V40a12 12 0 0 1 12-12h144a12 12 0 0 1 12 12M52 156h152v-56H52Zm0-116v52h152V40a4 4 0 0 0-4-4H56a4 4 0 0 0-4 4m152 176v-52H52v52a4 4 0 0 0 4 4h144a4 4 0 0 0 4-4"/></svg>

<svg xmlns="http://www.w3.org/2000/svg" viewBox="0 0 256 256" fill="currentColor"><path d="M140,192a4,4,0,0,1-4,4H120a4,4,0,0,1,0-8h16A4,4,0,0,1,140,192ZM120,68h16a4,4,0,0,0,0-8H120a4,4,0,0,0,0,8Zm16,56H120a4,4,0,0,0,0,8h16a4,4,0,0,0,0-8Zm76-84V216a12,12,0,0,1-12,12H56a12,12,0,0,1-12-12V40A12,12,0,0,1,56,28H200A12,12,0,0,1,212,40ZM52,156H204V100H52ZM52,40V92H204V40a4,4,0,0,0-4-4H56A4,4,0,0,0,52,40ZM204,216V164H52v52a4,4,0,0,0,4,4H200A4,4,0,0,0,204,216Z"/></svg>
